X:53
T:Courting them all
T:Rachael Rae
T:John Grady's downfall
R:Reel
O:Ireland
B:Krassen O'Neill's p149
B:O'Neills 1489
B:Kerr's First p4
B:Ceol Rince 2 n174
S:Krassen O'Neill's
Z:Transcription, chords:Mike Long
M:C|
L:1/8
K:D
A,|:"D"DF (3(ABc) d2 (3(ABc)|"D"~d2 fd "A"ecAc|"D"~d2 Ac "G"BAGF|[1 "A"EF (3(GFE) "D"FDDA,:|
[2 "A"EF (3(GFE) "D"FDDc|]"D"d2 fd (3(fga) fd|"G"~g2 bg "A"ecAc|"D"d2 fd (3(fga) fd|
"A"efge "D"fddA|"D"d2 fd (3(fga) fd|"G"~g2 bg "A"ecAc|"D"~d2 Ac "G"BAGF|"A"EF (3(GFE) "D"FDDA,|]
